X:26
T:Distant Bells
R:reel
C:Paul S. Cranford
O:20th Century Cape Breton
D:The Lighthouse, Cranford Publications
B:The Lighthouse Collection, ISBN 0-9691181-5-5
N:Contacts ...
N:..... Cranford Publications <http://www.cranfordpub.com>
Z:This abc transcription is for personal use only,
Z:provided this notice remains attached.
Z:Used by permission of the composer and publisher.
Z:Paul Stewart Cranford 
Q:300
L:1/8
M:C|
K:Ador
B|A2 EA cAEA|GEDE GABG|A/A/A aA gAfA|gagd edBG|
A2 EA cAEA|GEDE GABG|A/A/A aA gAfA|egdB A2 A:|!
|:B|A/A/A Ag fdef| g2 gd edBG|AEAB cGca|gagd edBG|!
A/A/A Ag fdef| g2 gd edBG|AEAB cdea|gedB A2A:|!
